src/assets/images/blocks/ecommerce/storefront/storefront-1-24.svg

<svg fill="none" height="24" viewBox="0 0 36 24" width="36" xmlns="http://www.w3.org/2000/svg"><path d="m0 3c0-1.65685 1.34315-3 3-3h30c1.6569 0 3 1.34315 3 3v18c0 1.6569-1.3431 3-3 3h-30c-1.65685 0-3-1.3431-3-3z" fill="#ccdeff"/><path d="m8.07812 8.63807c-.37603-.25851-.86671-.38807-1.47204-.38807h-2.34353c-.18557 0-.2881.09281-.30757.27824l-.95199 5.97586c-.0099.0587.00479.1124.04392.1612.0389.0489.08784.0732.14644.0732h1.11316c.19524 0 .30256-.0926.32226-.2782l.2636-1.6111c.00963-.0781.04397-.1416.10257-.1905.05856-.0488.1318-.0807.21969-.0953.08788-.0145.17075-.0218.24901-.0218.07803 0 .17075.0049.27833.0146.10732.0098.17572.0145.20505.0145.83971 0 1.49881-.2366 1.97736-.7103.47832-.4735.71775-1.1301.71775-1.97008 0-.5761-.18817-.99349-.56401-1.25239zm-1.2083 1.79433c-.04898.3419-.17577.5663-.38082.6738-.20509.1076-.49802.1611-.87879.1611l-.48338.0146.24906-1.56725c.01943-.10732.08287-.16104.19036-.16104h.27838c.39039 0 .67374.05628.84951.16838.17568.11237.23428.34921.17568.71041z" fill="#003087"/><path d="m32.8093 8.25h-1.0837c-.1077 0-.1711.05372-.1905.16122l-.9521 6.09318-.0146.0293c0 .049.0195.0952.0587.1392.0388.0438.0878.0658.1464.0658h.9668c.1852 0 .2878-.0926.3076-.2782l.952-5.99068v-.01455c0-.13677-.0637-.20509-.1906-.20509z" fill="#009cde"/><path d="m19.7142 10.6074c0-.0487-.0196-.0952-.0584-.139-.0392-.0439-.0831-.0661-.1318-.0661h-1.1278c-.1077 0-.1956.0491-.2638.1465l-1.5525 2.285-.6445-2.197c-.0491-.1562-.1563-.2345-.3222-.2345h-1.0987c-.0489 0-.0929.0221-.1317.0661-.0392.0438-.0586.0904-.0586.139 0 .0196.0952.3076.2856.8642.1904.5567.3954 1.1573.6152 1.8018.2197.6444.3343.9863.3441 1.025-.8007 1.0939-1.2009 1.6797-1.2009 1.7577 0 .1271.0633.1905.1904.1905h1.1278c.1074 0 .1952-.0488.2637-.1464l3.735-5.3903c.0194-.0194.0291-.0534.0291-.1026z" fill="#003087"/><path d="m30.2172 10.4033h-1.1132c-.1369 0-.2196.1612-.2489.4835-.2542-.3905-.7177-.586-1.3916-.586-.703 0-1.3012.2637-1.7942.791-.4932.5273-.7396 1.1475-.7396 1.8603 0 .5762.1684 1.0351.5052 1.3767.3369.342.7884.5127 1.355.5127.2831 0 .5712-.0587.8641-.1758s.5222-.2733.6885-.4687c0 .0098-.01.0536-.0293.1317-.0197.0783-.0293.137-.0293.1758 0 .1564.0633.2343.1904.2343h1.0107c.1853 0 .2929-.0926.3221-.2783l.6006-3.8229c.0096-.0586-.005-.1122-.044-.1611-.0392-.0487-.088-.0732-.1465-.0732zm-1.9114 2.8856c-.249.2441-.5493.3661-.9008.3661-.2833 0-.5126-.0779-.6884-.2343-.1759-.1559-.2638-.3707-.2638-.6444 0-.3611.1221-.6665.3663-.9155.2438-.249.5468-.3734.9081-.3734.2732 0 .5002.0805.6811.2415.1804.1612.2711.3834.2711.6666-.0001.3515-.1246.6494-.3736.8934z" fill="#009cde"/><path d="m13.5787 10.4033h-1.1132c-.1369 0-.2198.1612-.2491.4835-.2636-.3905-.7275-.586-1.3915-.586-.703 0-1.30119.2637-1.79424.791-.49319.5273-.73964 1.1475-.73964 1.8603 0 .5762.16846 1.0351.50536 1.3767.33689.342.78839.5127 1.35482.5127.2733 0 .5566-.0587.8495-.1758s.5273-.2733.7031-.4687c-.0392.1171-.0586.2197-.0586.3075 0 .1564.0634.2343.1904.2343h1.0106c.1854 0 .2929-.0926.3223-.2783l.6004-3.8229c.0097-.0586-.0049-.1122-.0439-.1611-.0391-.0487-.0878-.0732-.1463-.0732zm-1.9115 2.8929c-.249.2395-.5543.3588-.9154.3588-.2833 0-.5103-.0779-.6811-.2343-.17097-.1559-.25635-.3707-.25635-.6444 0-.3611.122-.6665.36625-.9155.2439-.249.5466-.3735.9081-.3735.2732 0 .5003.0806.6811.2416.1805.1612.2709.3834.2709.6666 0 .3613-.1245.6617-.3735.9007z" fill="#003087"/><path d="m24.7169 8.63807c-.376-.25851-.8666-.38807-1.472-.38807h-2.329c-.1953 0-.3028.09281-.3222.27824l-.952 5.97586c-.0099.0587.0047.1124.0439.1612.0387.0489.0878.0732.1464.0732h1.201c.1172 0 .1953-.0634.2344-.1904l.2637-1.6989c.0097-.0781.0439-.1416.1025-.1905.0587-.0488.1318-.0807.2198-.0953.0878-.0145.1706-.0218.2489-.0218.0781 0 .1708.0049.2783.0146.1073.0098.1759.0145.205.0145.8399 0 1.4989-.2366 1.9774-.7103.4785-.4735.7177-1.1301.7177-1.97008.0001-.5761-.188-.99353-.5638-1.25239zm-1.5013 2.40943c-.2149.1465-.5372.2197-.9667.2197l-.4688.0147.249-1.56734c.0194-.10727.0829-.16109.1904-.16109h.2636c.2148 0 .3857.00981.5128.02928.1267.01961.249.08055.3661.18302.1173.10257.1758.25153.1758.44673 0 .4103-.1075.6885-.3222.835z" fill="#009cde"/></svg>

<svg width="36" height="24" viewBox="0 0 36 24" fill="none" xmlns="http://www.w3.org/2000/svg">
<path d="M0 3C0 1.34315 1.34315 0 3 0H33C34.6569 0 36 1.34315 36 3V21C36 22.6569 34.6569 24 33 24H3C1.34315 24 0 22.6569 0 21V3Z" fill="#CCDEFF"/>
<path d="M8.07812 8.63807C7.70209 8.37956 7.21141 8.25 6.60608 8.25H4.26255C4.07698 8.25 3.97445 8.34281 3.95498 8.52824L3.00299 14.5041C2.99309 14.5628 3.00778 14.6165 3.04691 14.6653C3.08581 14.7142 3.13475 14.7385 3.19335 14.7385H4.30651C4.50175 14.7385 4.60907 14.6459 4.62877 14.4603L4.89237 12.8492C4.902 12.7711 4.93634 12.7076 4.99494 12.6587C5.0535 12.6099 5.12674 12.578 5.21463 12.5634C5.30251 12.5489 5.38538 12.5416 5.46364 12.5416C5.54167 12.5416 5.63439 12.5465 5.74197 12.5562C5.84929 12.566 5.91769 12.5707 5.94702 12.5707C6.78673 12.5707 7.44583 12.3341 7.92438 11.8604C8.4027 11.3869 8.64213 10.7303 8.64213 9.89032C8.64213 9.31422 8.45396 8.89683 8.07812 8.63793V8.63807ZM6.86982 10.4324C6.82084 10.7743 6.69405 10.9987 6.489 11.1062C6.28391 11.2138 5.99098 11.2673 5.61021 11.2673L5.12683 11.2819L5.37589 9.71465C5.39532 9.60733 5.45876 9.55361 5.56625 9.55361H5.84463C6.23502 9.55361 6.51837 9.60989 6.69414 9.72199C6.86982 9.83436 6.92842 10.0712 6.86982 10.4324Z" fill="#003087"/>
<path d="M32.8093 8.25H31.7256C31.6179 8.25 31.5545 8.30372 31.5351 8.41122L30.583 14.5044L30.5684 14.5337C30.5684 14.5827 30.5879 14.6289 30.6271 14.6729C30.6659 14.7167 30.7149 14.7387 30.7735 14.7387H31.7403C31.9255 14.7387 32.0281 14.6461 32.0479 14.4605L32.9999 8.46982V8.45527C32.9999 8.3185 32.9362 8.25018 32.8093 8.25018V8.25Z" fill="#009CDE"/>
<path d="M19.7142 10.6074C19.7142 10.5587 19.6946 10.5122 19.6558 10.4684C19.6166 10.4245 19.5727 10.4023 19.524 10.4023H18.3962C18.2885 10.4023 18.2006 10.4514 18.1324 10.5488L16.5799 12.8338L15.9354 10.6368C15.8863 10.4806 15.7791 10.4023 15.6132 10.4023H14.5145C14.4656 10.4023 14.4216 10.4244 14.3828 10.4684C14.3436 10.5122 14.3242 10.5588 14.3242 10.6074C14.3242 10.627 14.4194 10.915 14.6098 11.4716C14.8002 12.0283 15.0052 12.6289 15.225 13.2734C15.4447 13.9178 15.5593 14.2597 15.5691 14.2984C14.7684 15.3923 14.3682 15.9781 14.3682 16.0561C14.3682 16.1832 14.4315 16.2466 14.5586 16.2466H15.6864C15.7938 16.2466 15.8816 16.1978 15.9501 16.1002L19.6851 10.7099C19.7045 10.6905 19.7142 10.6565 19.7142 10.6073V10.6074Z" fill="#003087"/>
<path d="M30.2172 10.4033H29.104C28.9671 10.4033 28.8844 10.5645 28.8551 10.8868C28.6009 10.4963 28.1374 10.3008 27.4635 10.3008C26.7605 10.3008 26.1623 10.5645 25.6693 11.0918C25.1761 11.6191 24.9297 12.2393 24.9297 12.9521C24.9297 13.5283 25.0981 13.9872 25.4349 14.3288C25.7718 14.6708 26.2233 14.8415 26.7899 14.8415C27.073 14.8415 27.3611 14.7828 27.654 14.6657C27.9469 14.5486 28.1762 14.3924 28.3425 14.197C28.3425 14.2068 28.3325 14.2506 28.3132 14.3287C28.2935 14.407 28.2839 14.4657 28.2839 14.5045C28.2839 14.6609 28.3472 14.7388 28.4743 14.7388H29.485C29.6703 14.7388 29.7779 14.6462 29.8071 14.4605L30.4077 10.6376C30.4173 10.579 30.4027 10.5254 30.3637 10.4765C30.3245 10.4278 30.2757 10.4033 30.2172 10.4033ZM28.3058 13.2889C28.0568 13.533 27.7565 13.655 27.405 13.655C27.1217 13.655 26.8924 13.5771 26.7166 13.4207C26.5407 13.2648 26.4528 13.05 26.4528 12.7763C26.4528 12.4152 26.5749 12.1098 26.8191 11.8608C27.0629 11.6118 27.3659 11.4874 27.7272 11.4874C28.0004 11.4874 28.2274 11.5679 28.4083 11.7289C28.5887 11.8901 28.6794 12.1123 28.6794 12.3955C28.6793 12.747 28.5548 13.0449 28.3058 13.2889Z" fill="#009CDE"/>
<path d="M13.5787 10.4033H12.4655C12.3286 10.4033 12.2457 10.5645 12.2164 10.8868C11.9528 10.4963 11.4889 10.3008 10.8249 10.3008C10.1219 10.3008 9.52371 10.5645 9.03066 11.0918C8.53747 11.6191 8.29102 12.2393 8.29102 12.9521C8.29102 13.5283 8.45948 13.9872 8.79638 14.3288C9.13327 14.6708 9.58477 14.8415 10.1512 14.8415C10.4245 14.8415 10.7078 14.7828 11.0007 14.6657C11.2936 14.5486 11.528 14.3924 11.7038 14.197C11.6646 14.3141 11.6452 14.4167 11.6452 14.5045C11.6452 14.6609 11.7086 14.7388 11.8356 14.7388H12.8462C13.0316 14.7388 13.1391 14.6462 13.1685 14.4605L13.7689 10.6376C13.7786 10.579 13.764 10.5254 13.725 10.4765C13.6859 10.4278 13.6372 10.4033 13.5787 10.4033ZM11.6672 13.2962C11.4182 13.5357 11.1129 13.655 10.7518 13.655C10.4685 13.655 10.2415 13.5771 10.0707 13.4207C9.89973 13.2648 9.81435 13.05 9.81435 12.7763C9.81435 12.4152 9.93635 12.1098 10.1806 11.8608C10.4245 11.6118 10.7272 11.4873 11.0887 11.4873C11.3619 11.4873 11.589 11.5679 11.7698 11.7289C11.9503 11.8901 12.0407 12.1123 12.0407 12.3955C12.0407 12.7568 11.9162 13.0572 11.6672 13.2962Z" fill="#003087"/>
<path d="M24.7169 8.63807C24.3409 8.37956 23.8503 8.25 23.2449 8.25H20.9159C20.7206 8.25 20.6131 8.34281 20.5937 8.52824L19.6417 14.5041C19.6318 14.5628 19.6464 14.6165 19.6856 14.6653C19.7243 14.7142 19.7734 14.7385 19.832 14.7385H21.033C21.1502 14.7385 21.2283 14.6751 21.2674 14.5481L21.5311 12.8492C21.5408 12.7711 21.575 12.7076 21.6336 12.6587C21.6923 12.6099 21.7654 12.578 21.8534 12.5634C21.9412 12.5489 22.024 12.5416 22.1023 12.5416C22.1804 12.5416 22.2731 12.5465 22.3806 12.5562C22.4879 12.566 22.5565 12.5707 22.5856 12.5707C23.4255 12.5707 24.0845 12.3341 24.563 11.8604C25.0415 11.3869 25.2807 10.7303 25.2807 9.89032C25.2808 9.31422 25.0927 8.89679 24.7169 8.63793V8.63807ZM23.2156 11.0475C23.0007 11.194 22.6784 11.2672 22.2489 11.2672L21.7801 11.2819L22.0291 9.71456C22.0485 9.60729 22.112 9.55347 22.2195 9.55347H22.4831C22.6979 9.55347 22.8688 9.56328 22.9959 9.58275C23.1226 9.60236 23.2449 9.6633 23.362 9.76577C23.4793 9.86834 23.5378 10.0173 23.5378 10.2125C23.5378 10.6228 23.4303 10.901 23.2156 11.0475Z" fill="#009CDE"/>
</svg>
